full-icon.svg

<?xml version="1.0" encoding="UTF-8" standalone="no"?>
<svg xmlns="http://www.w3.org/2000/svg" viewBox="400 100 1260 400" height="400" width="1200" version="1.1">
	<g transform="matrix(1.25,0,0,-1.25,0,2790)">
		<!-- #e94048 -->
		<g transform="translate(712.6572,2059.8428)">
			<path
				style="fill:#e94048; fill-opacity:1; fill-rule:nonzero; stroke:none"
				d="
					m
						-197.651,-46.909
						75.37,-75.37
						34.61,34.609
						-75.371,75.371
						-34.609,-34.61
					z
					M
						0,-12.299
						-40.762,-53.06
					l
						-40.759,40.761
						-34.611,-34.611
						75.37,-75.369
						75.371,75.37
					L
						0,-12.299
					Z
					m
						-169.191,6.15
						-34.611,34.612
						-75.368,-75.371
						75.368,-75.371
						34.611,34.609
						-40.762,40.763
						40.762,40.758
					z
					m
						-81.523,0.002
						-34.609,34.61
						-34.61,-34.612
						34.611,-34.607
						34.608,34.609
					z
					m
						-69.22,-81.523
						34.612,-34.609
						34.61,34.608
						-34.61,34.611
						-34.612,-34.61
					z
				"
				/>

			<path id="w"
				style="fill:green; fill-opacity:1; fill-rule:nonzero; stroke:none"
				d="

				"
			/>

			<path id="p"
				style="fill:blue; fill-opacity:1; fill-rule:nonzero; stroke:none"
				d="
					m
						0,0
						40.633,-40.634
					c
						17.808,20.939
						16.828,52.392
						-2.949,72.169
						-20.815,20.813
						-54.559,20.813
						-75.372,0
					L
						-75.372,-6.149
						-40.761,-40.761
						0,0
					Z
					M
						40.758,-53.061
						6.15,-87.671
						40.758,-122.279
						75.367,-87.67
						40.758,-53.061
					Z
				"
			/>
		</g>
	</g>
</svg>

<svg xmlns="http://www.w3.org/2000/svg" viewBox="400 100 1260 400" height="400" width="1200" version="1.1">
	<g transform="matrix(1.25,0,0,-1.25,0,2790)">
		<g transform="translate(712.6572,2059.8428)">
			<path style="fill:#e94048; fill-opacity:1; fill-rule:nonzero; stroke:none" d="
				M -169.191 -6.149
				L -203.802 28.463
				L -279.17 -46.908
				L -203.802 -122.279
				L -169.191 -87.67
				L -209.953 -46.907
				L -169.191 -6.149
				Z

				M -250.714 -6.147
				L -285.323 28.463
				L -319.933 -6.149
				L -285.322 -40.756
				L -250.714 -6.147
				Z

				M -319.934 -87.67
				L -285.322 -122.279
				L -250.712 -87.671
				L -285.322 -53.06
				L -319.934 -87.67
				Z
			" />

			<path id="w" style="fill:green; fill-opacity:1; fill-rule:nonzero; stroke:none" d="
				M -197.651 -46.909
				L -122.281 -122.279
				L -87.671 -87.67
				L -163.042 -12.299
				L -197.651 -46.909
				Z

				M 0 -12.299
				L -40.762 -53.06
				L -81.521 -12.299
				L -116.132 -46.91
				L -40.762 -122.279
				L 34.609 -46.909
				L 0 -12.299
				Z
			" />

			<path id="p" style="fill:blue; fill-opacity:1; fill-rule:nonzero; stroke:none" d="
				M 0 0
				L 40.633 -40.634
				C 58.441 -19.695 57.461 11.758 37.684 31.535
				C 16.869 52.348 -16.875 52.348 -37.688 31.535
				L -75.372 -6.149
				L -40.761 -40.761
				L 0 0 Z M 40.758 -53.061
				L 6.15 -87.671
				L 40.758 -122.279
				L 75.367 -87.67
				L 40.758 -53.061
				Z
			"/>
		</g>
	</g>
</svg>
